X:515
T:
N:
S:Uppt. såsom samlaren hört den spelas av L. Lagergren, Likmide i Hemse.
R:vals
O:Gotland, Hemse
M:3/4
L:1/8
K:A
(CD)|E2 [Ee][Ee][Ee][Ee]|e2 c'2 a2|a2 g2 B2|f4 (B,D)|D2 BBBB|
B2 a2 g2|f2 e2 E2|c4 (CD)|E2 eeee|e2 c'2 a2|a2 g2 B2|
f4 (FG)|A2 aaaa|a2 g2 a2|c'4 b2|1 a4:|2a2 z2 A2|:A2 z2 f2|
z2 ffff|f2 e2 A2|z2 AAAA|A2 z2 d2|z2 dddd|d2 c2 A2|
z2 AAAA|A2 z2 B2|z2 BBBB|B2 z2 c2|z2 cccc|e3 dcB|
e3 dBc|(AB)(AG)(AB)|1 A4 z2:|2 A4|]

